build/assets/img/stage-developers/image-element-3.svg

<svg width="97" height="71" viewBox="0 0 97 71" fill="none" xmlns="http://www.w3.org/2000/svg">
<g filter="url(#filter0_di)">
<path d="M88.0539 2.00003H4.28539C3.041 2.00003 2.03223 3.00999 2.03223 4.25583V62.7442C2.03223 63.9901 3.041 65 4.28539 65H88.0539C89.2983 65 90.307 63.9901 90.307 62.7442V4.25583C90.307 3.00999 89.2983 2.00003 88.0539 2.00003Z" fill="url(#paint0_linear)"/>
<path d="M28.6361 28.3875C28.9026 28.3875 29.1336 28.4854 29.3291 28.6811C29.5245 28.8768 29.6223 29.1169 29.6223 29.4015V42.8772C29.6223 43.144 29.5245 43.3753 29.3291 43.5709C29.1336 43.7666 28.9026 43.8645 28.6361 43.8645C28.3696 43.8645 28.1386 43.7666 27.9431 43.5709C27.7477 43.3753 27.6499 43.144 27.6499 42.8772V37.0866H19.3608V42.8772C19.3608 43.144 19.2631 43.3753 19.0676 43.5709C18.8722 43.7666 18.6323 43.8645 18.348 43.8645C18.0815 43.8645 17.8505 43.7666 17.655 43.5709C17.4595 43.3753 17.3618 43.144 17.3618 42.8772V29.4015C17.3618 29.1347 17.4595 28.9034 17.655 28.7078C17.8505 28.4943 18.0815 28.3875 18.348 28.3875C18.6145 28.3875 18.8455 28.4854 19.041 28.6811C19.2542 28.8768 19.3608 29.1169 19.3608 29.4015V35.2187H27.6499V29.4015C27.6499 29.1347 27.7477 28.9034 27.9431 28.7078C28.1386 28.4943 28.3696 28.3875 28.6361 28.3875Z" fill="white"/>
<path d="M43.8284 28.4943C44.0949 28.4943 44.317 28.5921 44.4947 28.7878C44.6724 28.9657 44.7613 29.1792 44.7613 29.4282C44.7613 29.6773 44.6724 29.8997 44.4947 30.0953C44.317 30.2732 44.0949 30.3622 43.8284 30.3622H39.3773V42.8772C39.3773 43.144 39.2796 43.3753 39.0841 43.5709C38.9065 43.7666 38.6755 43.8645 38.3912 43.8645C38.1246 43.8645 37.8936 43.7666 37.6982 43.5709C37.5027 43.3753 37.405 43.144 37.405 42.8772V30.3622H32.9539C32.7052 30.3622 32.483 30.2732 32.2876 30.0953C32.1099 29.9174 32.0211 29.6951 32.0211 29.4282C32.0211 29.1792 32.1099 28.9657 32.2876 28.7878C32.4653 28.5921 32.6874 28.4943 32.9539 28.4943H43.8284Z" fill="white"/>
<path d="M62.5922 28.3875C63.0009 28.3875 63.3385 28.5299 63.605 28.8145C63.8893 29.0991 64.0315 29.4371 64.0315 29.8285V42.8772C64.0315 43.144 63.9338 43.3753 63.7383 43.5709C63.5429 43.7666 63.3119 43.8645 63.0453 43.8645C62.7788 43.8645 62.5478 43.7666 62.3523 43.5709C62.1569 43.3753 62.0592 43.144 62.0592 42.8772V30.4689L56.9951 42.9572C56.8885 43.224 56.7108 43.4464 56.462 43.6243C56.2132 43.7844 55.9289 43.8645 55.6091 43.8645C55.2893 43.8645 55.005 43.7844 54.7562 43.6243C54.5074 43.4642 54.3209 43.2418 54.1965 42.9572L49.159 30.4689V42.8772C49.159 43.144 49.0613 43.3753 48.8658 43.5709C48.6704 43.7666 48.4305 43.8645 48.1462 43.8645C47.8797 43.8645 47.6487 43.7666 47.4532 43.5709C47.2578 43.3753 47.16 43.144 47.16 42.8772V29.8285C47.16 29.4371 47.2933 29.0991 47.5598 28.8145C47.8441 28.5299 48.1906 28.3875 48.5993 28.3875H49.319C49.6033 28.3875 49.8609 28.4765 50.0919 28.6544C50.3407 28.8323 50.5272 29.0458 50.6516 29.2948L55.6091 41.6764L60.5666 29.2948C60.6732 29.0458 60.842 28.8323 61.073 28.6544C61.3218 28.4765 61.5972 28.3875 61.8992 28.3875H62.5922Z" fill="white"/>
<path d="M77.3847 41.7831C77.669 41.7831 77.9 41.8809 78.0777 42.0766C78.2732 42.2545 78.3709 42.4858 78.3709 42.7704C78.3709 43.0373 78.2732 43.2685 78.0777 43.4642C77.9 43.6599 77.669 43.7577 77.3847 43.7577H69.6287C69.2377 43.7577 68.909 43.6243 68.6425 43.3575C68.376 43.0906 68.2427 42.7615 68.2427 42.3701V29.4015C68.2427 29.1347 68.3404 28.9034 68.5359 28.7078C68.7313 28.4943 68.9623 28.3875 69.2289 28.3875C69.4954 28.3875 69.7264 28.4854 69.9218 28.6811C70.1351 28.8768 70.2417 29.1169 70.2417 29.4015V41.7831H77.3847Z" fill="white"/>
<path d="M91 11.3557C91 11.5042 71.0739 11.6362 46.5 11.6362C21.9261 11.6362 2 11.5042 2 11.3557C2 11.2072 21.9261 11.0752 46.5 11.0752C71.0739 11.0752 91 11.2567 91 11.3557Z" fill="white"/>
<path d="M23.2992 8.08782C24.1859 8.08782 24.9046 7.45817 24.9046 6.68146C24.9046 5.90475 24.1859 5.27511 23.2992 5.27511C22.4126 5.27511 21.6938 5.90475 21.6938 6.68146C21.6938 7.45817 22.4126 8.08782 23.2992 8.08782Z" fill="white"/>
<path d="M10.4286 8.08782C11.3152 8.08782 12.034 7.45817 12.034 6.68146C12.034 5.90475 11.3152 5.27511 10.4286 5.27511C9.54199 5.27511 8.82324 5.90475 8.82324 6.68146C8.82324 7.45817 9.54199 8.08782 10.4286 8.08782Z" fill="white"/>
<path d="M17.2514 8.08782C18.138 8.08782 18.8568 7.45817 18.8568 6.68146C18.8568 5.90475 18.138 5.27511 17.2514 5.27511C16.3647 5.27511 15.646 5.90475 15.646 6.68146C15.646 7.45817 16.3647 8.08782 17.2514 8.08782Z" fill="white"/>
</g>
<defs>
<filter id="filter0_di" x="0" y="3.05176e-05" width="97" height="71" filterUnits="userSpaceOnUse" color-interpolation-filters="sRGB">
<feFlood flood-opacity="0" result="BackgroundImageFix"/>
<feColorMatrix in="SourceAlpha" type="matrix" values="0 0 0 0 0 0 0 0 0 0 0 0 0 0 0 0 0 0 127 0"/>
<feOffset dx="2" dy="2"/>
<feGaussianBlur stdDeviation="2"/>
<feColorMatrix type="matrix" values="0 0 0 0 0 0 0 0 0 0 0 0 0 0 0 0 0 0 0.15 0"/>
<feBlend mode="normal" in2="BackgroundImageFix" result="effect1_dropShadow"/>
<feBlend mode="normal" in="SourceGraphic" in2="effect1_dropShadow" result="shape"/>
<feColorMatrix in="SourceAlpha" type="matrix" values="0 0 0 0 0 0 0 0 0 0 0 0 0 0 0 0 0 0 127 0" result="hardAlpha"/>
<feOffset dx="-2" dy="-2"/>
<feGaussianBlur stdDeviation="2"/>
<feComposite in2="hardAlpha" operator="arithmetic" k2="-1" k3="1"/>
<feColorMatrix type="matrix" values="0 0 0 0 0 0 0 0 0 0 0 0 0 0 0 0 0 0 0.2 0"/>
<feBlend mode="normal" in2="shape" result="effect2_innerShadow"/>
</filter>
<linearGradient id="paint0_linear" x1="87.5859" y1="33.5" x2="4.68107" y2="31.0058" gradientUnits="userSpaceOnUse">
<stop stop-color="#A62E41"/>
<stop offset="1" stop-color="#E13152"/>
</linearGradient>
</defs>
</svg>

<svg width="97" height="71" fill="none" xmlns="http://www.w3.org/2000/svg"><g filter="url(#filter0_di)"><path d="M88.054 2H4.285a2.254 2.254 0 00-2.253 2.256v58.488A2.254 2.254 0 004.285 65h83.769a2.254 2.254 0 002.253-2.256V4.256A2.254 2.254 0 0088.054 2z" fill="url(#paint0_linear)"/><path d="M28.636 28.387c.267 0 .498.098.693.294a.98.98 0 01.293.72v13.476a.95.95 0 01-.293.694.947.947 0 01-.693.294.947.947 0 01-.693-.294.95.95 0 01-.293-.694v-5.79h-8.29v5.79a.949.949 0 01-.292.694.978.978 0 01-.72.294.947.947 0 01-.693-.294.949.949 0 01-.293-.694V29.401a.95.95 0 01.293-.693.91.91 0 01.693-.32c.267 0 .498.097.693.293a.94.94 0 01.32.72v5.818h8.289V29.4a.95.95 0 01.293-.693.91.91 0 01.693-.32zm15.192.107c.267 0 .489.098.667.294a.874.874 0 01.266.64c0 .25-.089.472-.266.667a.904.904 0 01-.667.267h-4.45v12.515a.949.949 0 01-.294.694.892.892 0 01-.693.294.947.947 0 01-.693-.294.949.949 0 01-.293-.694V30.362h-4.451a.963.963 0 01-.666-.267.905.905 0 01-.267-.667c0-.249.089-.462.267-.64a.863.863 0 01.666-.294h10.874zm18.764-.107c.409 0 .747.143 1.013.427.284.285.426.623.426 1.014v13.05a.949.949 0 01-.293.693.947.947 0 01-.693.294.947.947 0 01-.693-.294.949.949 0 01-.293-.694V30.47l-5.064 12.488a1.49 1.49 0 01-.533.667c-.249.16-.533.24-.853.24-.32 0-.604-.08-.853-.24a1.474 1.474 0 01-.56-.667L49.16 30.47v12.408a.949.949 0 01-.293.694.978.978 0 01-.72.294.947.947 0 01-.693-.294.95.95 0 01-.293-.694v-13.05c0-.39.133-.729.4-1.014.284-.284.63-.427 1.04-.427h.719c.284 0 .542.09.773.267.249.178.435.392.56.64l4.957 12.382 4.958-12.381c.106-.25.275-.463.506-.64.249-.178.524-.268.826-.268h.693zm14.793 13.396c.284 0 .515.098.693.294a.895.895 0 01.293.693.949.949 0 01-.293.694.893.893 0 01-.693.294h-7.756a1.34 1.34 0 01-.987-.4 1.343 1.343 0 01-.4-.988V29.402c0-.267.098-.499.294-.694a.91.91 0 01.693-.32c.266 0 .497.097.693.293a.94.94 0 01.32.72v12.382h7.143zM91 11.356c0 .148-19.926.28-44.5.28S2 11.504 2 11.356c0-.149 19.926-.28 44.5-.28s44.5.18 44.5.28zM23.3 8.088c.886 0 1.605-.63 1.605-1.407 0-.776-.72-1.406-1.606-1.406-.886 0-1.605.63-1.605 1.406 0 .777.719 1.407 1.605 1.407zm-12.871 0c.886 0 1.605-.63 1.605-1.407 0-.776-.719-1.406-1.605-1.406-.887 0-1.606.63-1.606 1.406 0 .777.719 1.407 1.606 1.407zm6.822 0c.887 0 1.606-.63 1.606-1.407 0-.776-.719-1.406-1.606-1.406-.886 0-1.605.63-1.605 1.406 0 .777.719 1.407 1.605 1.407z" fill="#fff"/></g><defs><linearGradient id="paint0_linear" x1="87.586" y1="33.5" x2="4.681" y2="31.006" gradientUnits="userSpaceOnUse"><stop stop-color="#A62E41"/><stop offset="1" stop-color="#E13152"/></linearGradient><filter id="filter0_di" x="0" y="0" width="97" height="71" filterUnits="userSpaceOnUse" color-interpolation-filters="sRGB"><feFlood flood-opacity="0" result="BackgroundImageFix"/><feColorMatrix in="SourceAlpha" values="0 0 0 0 0 0 0 0 0 0 0 0 0 0 0 0 0 0 127 0"/><feOffset dx="2" dy="2"/><feGaussianBlur stdDeviation="2"/><feColorMatrix values="0 0 0 0 0 0 0 0 0 0 0 0 0 0 0 0 0 0 0.15 0"/><feBlend in2="BackgroundImageFix" result="effect1_dropShadow"/><feBlend in="SourceGraphic" in2="effect1_dropShadow" result="shape"/><feColorMatrix in="SourceAlpha" values="0 0 0 0 0 0 0 0 0 0 0 0 0 0 0 0 0 0 127 0" result="hardAlpha"/><feOffset dx="-2" dy="-2"/><feGaussianBlur stdDeviation="2"/><feComposite in2="hardAlpha" operator="arithmetic" k2="-1" k3="1"/><feColorMatrix values="0 0 0 0 0 0 0 0 0 0 0 0 0 0 0 0 0 0 0.2 0"/><feBlend in2="shape" result="effect2_innerShadow"/></filter></defs></svg>
